packages/ffe-icons/icons/open/400/sm/fit_page.svg

<svg xmlns="http://www.w3.org/2000/svg" height="20" viewBox="0 -960 960 960" width="20"><path d="M144-180v-600q0-15.3 10.289-25.65 10.29-10.35 25.5-10.35Q195-816 205.5-805.65 216-795.3 216-780v600q0 15.3-10.289 25.65-10.29 10.35-25.5 10.35Q165-144 154.5-154.35 144-164.7 144-180Zm600 0v-600q0-15.3 10.289-25.65 10.29-10.35 25.5-10.35Q795-816 805.5-805.65 816-795.3 816-780v600q0 15.3-10.289 25.65-10.29 10.35-25.5 10.35Q765-144 754.5-154.35 744-164.7 744-180ZM480.211-594Q465-594 454.5-604.289q-10.5-10.29-10.5-25.5Q444-645 454.289-655.5q10.29-10.5 25.5-10.5Q495-666 505.5-655.711q10.5 10.29 10.5 25.5Q516-615 505.711-604.5q-10.29 10.5-25.5 10.5Zm-150 150Q315-444 304.5-454.289q-10.5-10.29-10.5-25.5Q294-495 304.289-505.5q10.29-10.5 25.5-10.5Q345-516 355.5-505.711q10.5 10.29 10.5 25.5Q366-465 355.711-454.5q-10.29 10.5-25.5 10.5Zm150 0Q465-444 454.5-454.289q-10.5-10.29-10.5-25.5Q444-495 454.289-505.5q10.29-10.5 25.5-10.5Q495-516 505.5-505.711q10.5 10.29 10.5 25.5Q516-465 505.711-454.5q-10.29 10.5-25.5 10.5Zm150 0Q615-444 604.5-454.289q-10.5-10.29-10.5-25.5Q594-495 604.289-505.5q10.29-10.5 25.5-10.5Q645-516 655.5-505.711q10.5 10.29 10.5 25.5Q666-465 655.711-454.5q-10.29 10.5-25.5 10.5Zm-150 150Q465-294 454.5-304.289q-10.5-10.29-10.5-25.5Q444-345 454.289-355.5q10.29-10.5 25.5-10.5Q495-366 505.5-355.711q10.5 10.29 10.5 25.5Q516-315 505.711-304.5q-10.29 10.5-25.5 10.5Zm0-450Q465-744 454.5-754.289q-10.5-10.29-10.5-25.5Q444-795 454.289-805.5q10.29-10.5 25.5-10.5Q495-816 505.5-805.711q10.5 10.29 10.5 25.5Q516-765 505.711-754.5q-10.29 10.5-25.5 10.5Zm0 600Q465-144 454.5-154.289q-10.5-10.29-10.5-25.5Q444-195 454.289-205.5q10.29-10.5 25.5-10.5Q495-216 505.5-205.711q10.5 10.29 10.5 25.5Q516-165 505.711-154.5q-10.29 10.5-25.5 10.5Z"/></svg>

<svg xmlns="http://www.w3.org/2000/svg" height="20" viewBox="0 -960 960 960" width="20"><path d="M144-180v-600q0-15.3 10.29-25.65Q164.58-816 179.79-816t25.71 10.35Q216-795.3 216-780v600q0 15.3-10.29 25.65Q195.42-144 180.21-144t-25.71-10.35Q144-164.7 144-180Zm600 0v-600q0-15.3 10.29-25.65Q764.58-816 779.79-816t25.71 10.35Q816-795.3 816-780v600q0 15.3-10.29 25.65Q795.42-144 780.21-144t-25.71-10.35Q744-164.7 744-180ZM480.21-594q-15.21 0-25.71-10.29t-10.5-25.5q0-15.21 10.29-25.71t25.5-10.5q15.21 0 25.71 10.29t10.5 25.5q0 15.21-10.29 25.71t-25.5 10.5Zm-150 150q-15.21 0-25.71-10.29t-10.5-25.5q0-15.21 10.29-25.71t25.5-10.5q15.21 0 25.71 10.29t10.5 25.5q0 15.21-10.29 25.71t-25.5 10.5Zm150 0q-15.21 0-25.71-10.29t-10.5-25.5q0-15.21 10.29-25.71t25.5-10.5q15.21 0 25.71 10.29t10.5 25.5q0 15.21-10.29 25.71t-25.5 10.5Zm150 0q-15.21 0-25.71-10.29t-10.5-25.5q0-15.21 10.29-25.71t25.5-10.5q15.21 0 25.71 10.29t10.5 25.5q0 15.21-10.29 25.71t-25.5 10.5Zm-150 150q-15.21 0-25.71-10.29t-10.5-25.5q0-15.21 10.29-25.71t25.5-10.5q15.21 0 25.71 10.29t10.5 25.5q0 15.21-10.29 25.71t-25.5 10.5Zm0-450q-15.21 0-25.71-10.29t-10.5-25.5q0-15.21 10.29-25.71t25.5-10.5q15.21 0 25.71 10.29t10.5 25.5q0 15.21-10.29 25.71t-25.5 10.5Zm0 600q-15.21 0-25.71-10.29t-10.5-25.5q0-15.21 10.29-25.71t25.5-10.5q15.21 0 25.71 10.29t10.5 25.5q0 15.21-10.29 25.71t-25.5 10.5Z"/></svg>
